images/Services/UZI.svg

<svg width="124" height="101" viewBox="0 0 124 101" xmlns="http://www.w3.org/2000/svg">
<path d="M92.9734 3.26254C104.907 3.26254 106.051 15.5949 106.157 16.5737V24.0449C104.779 24.3162 103.497 24.9465 102.442 25.8719C101.387 26.7973 100.596 27.9848 100.15 29.3139L96.3654 40.3086C95.9495 41.5225 95.8296 42.8179 96.0159 44.0873C96.2021 45.3566 96.6891 46.5634 97.4363 47.6073C98.1835 48.6512 99.1695 49.5023 100.312 50.0898C101.455 50.6773 102.722 50.9843 104.008 50.9853H111.568C112.854 50.9843 114.121 50.6773 115.263 50.0898C116.406 49.5023 117.392 48.6512 118.139 47.6073C118.887 46.5634 119.374 45.3566 119.56 44.0873C119.746 42.8179 119.626 41.5225 119.21 40.3086L115.426 29.3139C114.98 27.9859 114.19 26.799 113.137 25.8737C112.083 24.9484 110.803 24.3175 109.427 24.0449V16.4187C109.075 10.7093 105.185 0 92.9816 0C80.7786 0 77.2313 10.9132 77.1005 16.7205V40.9204C77.1005 44.9985 75.9808 48.098 73.7576 50.1126C71.6863 51.8336 69.0956 52.8103 66.4014 52.8857V35.4801C66.4014 34.409 66.19 33.3484 65.7793 32.3588C65.3685 31.3692 64.7664 30.4701 64.0075 29.7127C63.2485 28.9553 62.3474 28.3545 61.3558 27.9446C60.3641 27.5347 59.3013 27.3237 58.2279 27.3237H8.17349C6.00574 27.3237 3.92679 28.1831 2.39396 29.7127C0.861133 31.2423 0 33.3169 0 35.4801L0 85.3969C0 87.5601 0.861133 89.6347 2.39396 91.1643C3.92679 92.6939 6.00574 93.5533 8.17349 93.5533H31.5497V97.7375H3.62903C3.19548 97.7375 2.77969 97.9093 2.47312 98.2152C2.16656 98.5212 1.99433 98.9361 1.99433 99.3687C1.99433 99.8014 2.16656 100.216 2.47312 100.522C2.77969 100.828 3.19548 101 3.62903 101H62.7479C63.1814 101 63.5972 100.828 63.9038 100.522C64.2103 100.216 64.3826 99.8014 64.3826 99.3687C64.3826 98.9361 64.2103 98.5212 63.9038 98.2152C63.5972 97.9093 63.1814 97.7375 62.7479 97.7375H34.8191V93.5533H58.1952C60.363 93.5533 62.4419 92.6939 63.9748 91.1643C65.5076 89.6347 66.3687 87.5601 66.3687 85.3969V56.1564C69.88 56.0832 73.2593 54.8075 75.9399 52.5432C78.8823 49.8842 80.3699 45.9691 80.3699 40.9204V16.7531C80.3863 16.2067 80.8195 3.26254 92.9734 3.26254ZM112.336 30.3742L116.113 41.3608C116.363 42.0834 116.436 42.8552 116.327 43.6119C116.217 44.3685 115.928 45.0881 115.484 45.7106C115.039 46.3331 114.451 46.8406 113.77 47.1906C113.089 47.5406 112.334 47.7231 111.568 47.7228H104.008C103.243 47.7226 102.488 47.5402 101.808 47.1906C101.128 46.841 100.541 46.3345 100.097 45.713C99.6523 45.0915 99.3629 44.3731 99.2527 43.6176C99.1425 42.862 99.2147 42.0911 99.4632 41.369L103.239 30.3742C103.567 29.4309 104.181 28.6129 104.996 28.0339C105.812 27.455 106.787 27.1439 107.788 27.1439C108.788 27.1439 109.764 27.455 110.579 28.0339C111.395 28.6129 112.009 29.4309 112.336 30.3742ZM63.0993 85.3969C63.0993 86.6948 62.5827 87.9396 61.663 88.8574C60.7433 89.7751 59.4959 90.2907 58.1952 90.2907H8.17349C6.87284 90.2907 5.62547 89.7751 4.70577 88.8574C3.78608 87.9396 3.2694 86.6948 3.2694 85.3969V35.4801C3.2694 34.1822 3.78608 32.9374 4.70577 32.0196C5.62547 31.1019 6.87284 30.5863 8.17349 30.5863H58.1952C59.4959 30.5863 60.7433 31.1019 61.663 32.0196C62.5827 32.9374 63.0993 34.1822 63.0993 35.4801V85.3969Z" fill="#87AD3B"/>
<path d="M117.567 56.7111C117.719 56.559 117.84 56.3785 117.922 56.18C118.004 55.9815 118.046 55.7688 118.045 55.5541C118.045 55.3393 118.002 55.1268 117.919 54.9286C117.837 54.7303 117.716 54.5503 117.563 54.3987C117.411 54.2472 117.23 54.1271 117.031 54.0452C116.832 53.9634 116.619 53.9215 116.404 53.9219C116.189 53.9223 115.976 53.9649 115.777 54.0474C115.578 54.13 115.398 54.2507 115.246 54.4028C113.265 56.3767 110.579 57.4853 107.78 57.4853C104.98 57.4853 102.295 56.3767 100.313 54.4028C100.161 54.2513 99.981 54.131 99.7826 54.049C99.5841 53.967 99.3715 53.9248 99.1567 53.9248C98.9419 53.9248 98.7292 53.967 98.5307 54.049C98.3323 54.131 98.152 54.2513 98.0001 54.4028C97.8482 54.5544 97.7278 54.7343 97.6456 54.9323C97.5634 55.1304 97.5211 55.3426 97.5211 55.5569C97.5211 55.7713 97.5634 55.9835 97.6456 56.1815C97.7278 56.3796 97.8482 56.5595 98.0001 56.7111C100.596 59.2955 104.113 60.747 107.78 60.747C111.447 60.747 114.964 59.2955 117.559 56.7111H117.567Z" fill="#87AD3B"/>
<path d="M118.516 59.5412C117.111 60.9433 115.444 62.0555 113.609 62.8143C111.774 63.5731 109.807 63.9637 107.821 63.9637C105.834 63.9637 103.867 63.5731 102.032 62.8143C100.197 62.0555 98.5298 60.9433 97.1256 59.5412C96.9836 59.3602 96.8048 59.2112 96.601 59.104C96.3973 58.9968 96.1731 58.9337 95.9432 58.919C95.7133 58.9043 95.4829 58.9382 95.2671 59.0185C95.0513 59.0989 94.8549 59.2239 94.6908 59.3853C94.5268 59.5466 94.3988 59.7408 94.3152 59.955C94.2316 60.1692 94.1943 60.3987 94.2058 60.6282C94.2173 60.8578 94.2773 61.0824 94.3818 61.2873C94.4864 61.4921 94.6331 61.6726 94.8125 61.8169C96.5195 63.5208 98.5461 64.8724 100.777 65.7945C103.007 66.7167 105.398 67.1913 107.812 67.1913C110.227 67.1913 112.618 66.7167 114.848 65.7945C117.079 64.8724 119.105 63.5208 120.812 61.8169C121.047 61.5019 121.161 61.1129 121.131 60.7213C121.102 60.3297 120.932 59.9618 120.653 59.6851C120.374 59.4084 120.004 59.2416 119.611 59.2151C119.219 59.1887 118.83 59.3045 118.516 59.5412Z" fill="#87AD3B"/>
<path d="M123.518 64.7124C123.366 64.5608 123.186 64.4405 122.987 64.3584C122.789 64.2763 122.576 64.234 122.361 64.234C122.146 64.234 121.934 64.2763 121.735 64.3584C121.537 64.4405 121.356 64.5608 121.205 64.7124C117.644 68.2582 112.818 70.2495 107.788 70.2495C102.757 70.2495 97.9322 68.2582 94.3711 64.7124C94.0644 64.4063 93.6483 64.2344 93.2146 64.2344C92.7808 64.2344 92.3647 64.4063 92.058 64.7124C91.7513 65.0185 91.5789 65.4337 91.5789 65.8666C91.5789 66.2994 91.7513 66.7146 92.058 67.0207C96.2323 71.1791 101.89 73.5146 107.788 73.5146C113.686 73.5146 119.343 71.1791 123.518 67.0207C123.67 66.8692 123.79 66.6893 123.873 66.4912C123.955 66.2932 123.997 66.0809 123.997 65.8666C123.997 65.6522 123.955 65.4399 123.873 65.2419C123.79 65.0439 123.67 64.8639 123.518 64.7124Z" fill="#87AD3B"/>
<path d="M42.4367 47.16C42.3727 46.9393 42.2627 46.7347 42.1139 46.5594C41.9651 46.3841 41.7809 46.2421 41.5734 46.1428C41.3658 46.0435 41.1396 45.989 40.9095 45.983C40.6793 45.977 40.4506 46.0195 40.2381 46.1078C37.6804 47.1684 34.9405 47.7224 32.1708 47.7391C29.4513 47.7231 26.762 47.1687 24.2589 46.1078C24.0369 46.0224 23.7989 45.9863 23.5616 46.0022C23.3242 46.018 23.0932 46.0854 22.8846 46.1996C22.676 46.3137 22.4949 46.472 22.3539 46.6632C22.2129 46.8544 22.1155 47.0741 22.0684 47.3068L16.772 71.7758C16.6933 72.148 16.7474 72.536 16.925 72.8726C17.1026 73.2092 17.3925 73.4733 17.7446 73.6191C22.4331 75.5678 27.452 76.6032 32.5305 76.6696H33.168C38.4767 76.6604 43.7316 75.6072 48.6322 73.5702C49.0023 73.4158 49.3025 73.1311 49.4758 72.7701C49.6492 72.4092 49.6834 71.9972 49.5722 71.6127L42.4367 47.16ZM32.5877 73.4071C28.3745 73.3429 24.2043 72.5509 20.2621 71.0662L24.831 49.8026C27.2068 50.5731 29.6891 50.9666 32.1872 50.969C34.7708 50.9856 37.3394 50.5749 39.7885 49.7537L46.0167 71.0988C41.7219 72.6902 37.1685 73.4728 32.5877 73.4071Z" fill="#87AD3B"/>
</svg>
<?xml-stylesheet type="text/css" href="./css/style.min.css"?>

<?xml-stylesheet type="text/css" href="/css/style.min.css"?><svg viewBox="0 0 124 101" xmlns="http://www.w3.org/2000/svg"><path d="M92.973 3.263c11.934 0 13.078 12.332 13.184 13.31v7.472a7.968 7.968 0 00-3.715 1.827 7.939 7.939 0 00-2.292 3.442l-3.785 10.995a8.05 8.05 0 001.071 7.298 8.08 8.08 0 006.572 3.378h7.56a8.092 8.092 0 006.571-3.378 8.046 8.046 0 001.071-7.298l-3.784-10.995a7.95 7.95 0 00-5.999-5.27V16.42C109.075 10.709 105.185 0 92.982 0S77.232 10.913 77.1 16.72v24.2c0 4.078-1.12 7.178-3.342 9.193a12.038 12.038 0 01-7.357 2.773V35.48a8.143 8.143 0 00-2.394-5.767 8.176 8.176 0 00-5.78-2.39H8.174c-2.167 0-4.246.86-5.779 2.39A8.148 8.148 0 000 35.48v49.917c0 2.163.861 4.238 2.394 5.767a8.182 8.182 0 005.78 2.39H31.55v4.183H3.629a1.636 1.636 0 00-1.635 1.632A1.63 1.63 0 003.63 101h59.119a1.636 1.636 0 001.635-1.631 1.63 1.63 0 00-1.635-1.632h-27.93v-4.184h23.376c2.168 0 4.247-.86 5.78-2.389a8.148 8.148 0 002.394-5.767v-29.24a15.328 15.328 0 009.57-3.614c2.943-2.659 4.43-6.574 4.43-11.623V16.753c.017-.546.45-13.49 12.604-13.49zm19.363 27.111l3.777 10.987a4.794 4.794 0 01-4.545 6.362h-7.56a4.817 4.817 0 01-3.911-2.01 4.789 4.789 0 01-.634-4.344l3.776-10.995a4.808 4.808 0 014.549-3.23c1 0 1.976.311 2.791.89a4.796 4.796 0 011.757 2.34zM63.099 85.397a4.889 4.889 0 01-1.436 3.46 4.91 4.91 0 01-3.468 1.434H8.173a4.91 4.91 0 01-3.467-1.434 4.889 4.889 0 01-1.437-3.46V35.48c0-1.298.517-2.543 1.437-3.46a4.91 4.91 0 013.467-1.434h50.022c1.3 0 2.548.516 3.468 1.434a4.889 4.889 0 011.436 3.46v49.917z" fill="#87AD3B"/><path d="M117.567 56.711a1.636 1.636 0 00.478-1.157 1.62 1.62 0 00-.482-1.155 1.635 1.635 0 00-1.786-.352 1.638 1.638 0 00-.531.356 10.581 10.581 0 01-14.933 0 1.637 1.637 0 00-2.792 1.154 1.629 1.629 0 00.48 1.154 13.862 13.862 0 009.779 4.036 13.86 13.86 0 009.779-4.036h.008z" fill="#87AD3B"/><path d="M118.516 59.541a15.133 15.133 0 01-10.695 4.423 15.15 15.15 0 01-10.695-4.423 1.633 1.633 0 00-1.859-.522 1.637 1.637 0 00-1.061 1.61 1.63 1.63 0 00.606 1.188 18.411 18.411 0 0026 0 1.625 1.625 0 00-.159-2.132 1.636 1.636 0 00-2.137-.144z" fill="#87AD3B"/><path d="M123.518 64.712a1.634 1.634 0 00-1.783-.354 1.63 1.63 0 00-.53.354 19.017 19.017 0 01-13.417 5.537 19.015 19.015 0 01-13.417-5.537 1.637 1.637 0 00-2.792 1.155c0 .432.172.848.479 1.154a22.29 22.29 0 0015.73 6.494 22.29 22.29 0 0015.73-6.494 1.632 1.632 0 000-2.308zM42.437 47.16a1.63 1.63 0 00-1.527-1.177 1.638 1.638 0 00-.672.125 21.398 21.398 0 01-8.067 1.631 20.586 20.586 0 01-7.912-1.631 1.638 1.638 0 00-2.19 1.199l-5.297 24.469a1.628 1.628 0 00.973 1.843 39.884 39.884 0 0014.786 3.05h.637a40.474 40.474 0 0015.464-3.099 1.633 1.633 0 00.94-1.957L42.437 47.16zm-9.85 26.247a36.552 36.552 0 01-12.325-2.34l4.569-21.264a23.92 23.92 0 007.356 1.166 23.437 23.437 0 007.602-1.215l6.228 21.345a37.119 37.119 0 01-13.43 2.308z" fill="#87AD3B"/></svg>
